X: 18598
T: I Think It's Thursday
R: reel
M: 4/4
K: Adorian
|:defd defd|gefd dBc2|defd defd|1 gefd e^cd2:|2 gefd e^cde||
|:fgaa afg2|fgaa afg2|fgaa afg2|1 agfd e^cde:|2 agfd e^cde||

